X:96
T:Willa Fiord
R:reel
M:4/4
K:D
A2FA zDFA| B2GB zDGB| A2FA zDFA| EFGA GFED|
A2FA zDFA| B2GB zDGB| ABcd efge|1 f2d2 d2 z2 :|2 f2d2 d2 e2 |:
f2df zAdf| geaf gfed| f2df zAdf| e2ce zAce|
f2df zAdf| geaf gfed| ABcd efge| f2d2 d2 e2:|
